X: 11
T:Besom in Bloom, The
M:6/8
L:1/8
S:Colm O'Donnell
Z:Rachel Marsh
K:DMix
FED ~F3 | GED ~D3 | FED FGA | GFG AGE | FED ~F3 | AFA ~f3 |
ded cAF  |1 AGF ~G3 :||2 AGF G2 A||
B2 B BAG | ABG A2 G | FED FGA | GED ~D3 | B2 B BAG | ABG ABc |
ded cAF | AGF G3 :||
<end>
<start>
